X: 37938
T: Spagnoletta
R: jig
M: 6/8
K: Eminor
|:EF|"G" G>FG "D" A>GA|"G" B4 Bc|"G" d>cB "D" A>GA|"G" G4:|
GA|"G" B>cB "G" B>AG|"D" A4 GA|"G" B>AG "D" A>GF|1 "Em" E4:|2 "Em" E3-E2||
|:"C"e|e3/2d/cB2 e|e3/2d/c B2 B|"Bm" B3/2A/G "D"A3/2G/F|"Em" E3-E2:|

